Obsidian-SemiLight/actions/24s/mail-reply-list.svg

<svg viewBox="0 0 24 24" xmlns="http://www.w3.org/2000/svg"><path d="m2 4v9h1v-7.7773438-.2226562h.0488281l.2226563.2226562 5.7519531 5.7539058-2.0234375 2.023438h1.4140625l1.3164063-1.316406 1.4531252 1.451172.816406.814453h.001953l.814453-.814453 1.453125-1.451172 1.316407 1.316406h1.414062l-2.023438-2.023438 5.751954-5.7539058.222656-.2226562h.048828v.2226562 7.7773438h1v-8-1h-1-.462891-17.0742184-.4628906-.9511719zm2.4628906 1h15.0742184l-7.537109 7.537109zm.5371094 9-3 3 3 3v-2h1 1v-2h-1-1zm11 1v1h6v-1zm0 2v1h6v-1zm-7 2v1h6v-1zm7 0v1h6v-1z" fill="#4d4d4d"/></svg>

<svg xmlns="http://www.w3.org/2000/svg" viewBox="0 0 24 24">
  <defs id="defs3051">
    <style type="text/css" id="current-color-scheme">
      .ColorScheme-Text {
        color:#4d4d4d;
      }
      </style>
  </defs>
 <path style="fill:currentColor;fill-opacity:1;stroke:none" 
     d="M 2 4 L 2 13 L 3 13 L 3 5.2226562 L 3 5 L 3.0488281 5 L 3.2714844 5.2226562 L 9.0234375 10.976562 L 7 13 L 8.4140625 13 L 9.7304688 11.683594 L 11.183594 13.134766 L 12 13.949219 L 12.001953 13.949219 L 12.816406 13.134766 L 14.269531 11.683594 L 15.585938 13 L 17 13 L 14.976562 10.976562 L 20.728516 5.2226562 L 20.951172 5 L 21 5 L 21 5.2226562 L 21 13 L 22 13 L 22 5 L 22 4 L 21 4 L 20.537109 4 L 3.4628906 4 L 3 4 L 2.0488281 4 L 2 4 z M 4.4628906 5 L 19.537109 5 L 12 12.537109 L 4.4628906 5 z M 5 14 L 2 17 L 5 20 L 5 18 L 6 18 L 7 18 L 7 16 L 6 16 L 5 16 L 5 14 z M 16 15 L 16 16 L 22 16 L 22 15 L 16 15 z M 16 17 L 16 18 L 22 18 L 22 17 L 16 17 z M 9 19 L 9 20 L 15 20 L 15 19 L 9 19 z M 16 19 L 16 20 L 22 20 L 22 19 L 16 19 z "
     class="ColorScheme-Text"
     />
</svg>
